X:566
T:Skye Boat Song (in G)
Z:Jack Campin, http://www.campin.me.uk/
F:Jack Campin's Nine-Note Tunebook
% last edit 03-02-2013
M:6/8
L:1/8
Q:3/8=55
K:G
D>ED G2G|A>BA d3|B>AB E2E|   D3- D2z:|
B>GB B3 |A>EA A3|G>EG G2G|[1 E3- E2z:|\
                          [2 E3  D3 ||
D>ED G2G|A>BA d3|B>AB E2E|[1 D3- D2z:|\
                          [2 G3- G2z|]

